X:57
M:6/8
L:1/8
Q:3/8=110
K:D
e|e2 f g2 a|f3 e2 f|dgf efd|ede e2 d|\
e2 f g2 a|f2 e gfe|agf ede| d3-d2:|

